!!!!SEGMENT: pl-kk--kk-i-62--001-002_anonim--missa-gloria.krn
!!!cenid: 17xx:2251
!!!COM: Anonim
!!!COM-rismid: pe30004985
!!!CDT:
!!!CNT:
!!!OPR: Missa
!!!OTL: Gloria
!!!OMV: 002
!!!PDT:
!!!AGN: Sacred; Mass
!!!SMS-siglum: PL-Kk
!!!SMS-shelfmark: Kk.I.62
!!!SMS-shelfwork: 001-002 M
!!!SMS-variant:
!!!SMS-altvar:
!!!NIFC-rismid: 1001157167
!!!URL-scan: http://repozytorium.nifc.pl/skany/pl-kk-nut--i-62
!!!ONB-nifc: UWAGA: w zbiorze: 001 – Missa i 002 – Ut detus ex Agni throno.
!!!AIN: 1 alto 1 bass 1 cbass 1 empty 1 tenor 1 vox
!!!key:
**kern	**dynam	**kern	**dynam	**kern	**text	**dynam	**kern	**text	**kern	**text	**dynam	**kern	**text	**dynam
*part6	*part6	*part5	*part5	*part4	*part4	*part4	*part3	*part3	*part2	*part2	*part2	*part1	*part1	*part1
*staff6	*	*staff5	*	*staff4	*staff4	*	*staff3	*staff3	*staff2	*staff2	*	*staff1	*staff1	*
*Ibass	*	*Icbass	*	*Iempty	*	*	*Itenor	*	*Ialto	*	*	*Ivox	*	*
*I"Baſso Accompagnato.	*	*I"Contra Baſso.	*	*I"Baſso.	*	*	*I"Tenore.	*	*I"Alto.	*	*	*I"Canto	*	*
*I'B Acc	*	*I'cb	*	*I'B	*	*	*I'T	*	*I'A	*	*	*I'C	*	*
*clefF4	*	*clefF4	*	*clefF4	*	*	*clefC4	*	*clefC3	*	*	*clefC1	*	*
*Trd0c0	*	*Trd0c0	*	*	*	*	*	*	*	*	*	*	*	*
*k[b-]	*	*k[b-]	*	*k[b-]	*	*	*k[b-]	*	*k[b-]	*	*	*k[b-]	*	*
*C:	*	*C:	*	*C:	*	*	*C:	*	*C:	*	*	*C:	*	*
*M2/2	*	*M2/2	*	*M2/2	*	*	*M2/2	*	*M2/2	*	*	*M2/2	*	*
*met(c|)	*	*met(c|)	*	*met(c|)	*	*	*met(c|)	*	*met(c|)	*	*	*met(c|)	*	*
*all\right	*	*all\right	*	*all\right	*	*	*all\right	*	*all\right	*	*	*all\right	*	*
=1	=1	=1	=1	=1	=1	=1	=1	=1	=1	=1	=1	=1	=1	=1
!LO:TX:a:t=Andte.	!	!	!LO:DY:b:rj:t=fo	!LO:TX:a:t=Andte	!	!	!LO:TX:a:t=Andte.	!	!LO:TX:a:t=Andte	!	!	!LO:TX:a:t=Andte.	!	!
4F\	.	4FF/	f	(<4F\	Glo-	.	4.c\	Glo-	4.f\	Glo-	.	4.a\	Glo-	.
4C/	.	4AA/	.	4C/	.	.	.	.	.	.	.	.	.	.
.	.	.	.	.	.	.	8c\	-ri-	8f\	-ri-	.	8a\	-ri-	.
4AA/	.	4C/	.	4AA/)	.	.	4c\	-a	4f\	-a	.	4a\	-a	.
4FF/	.	4F\	.	4FF/	.	.	4r	.	4r	.	.	4r	.	.
=2	=2	=2	=2	=2	=2	=2	=2	=2	=2	=2	=2	=2	=2	=2
*	*	*	*	*	*	*	*	*ij	*	*ij	*	*	*ij	*
4F\	.	4FF/	.	(4F\	.	.	4.F/	Glo-	4.f\	Glo-	.	4.dd\	Glo-	.
4D\	.	4BB-/	.	4D/	.	.	.	.	.	.	.	.	.	.
.	.	.	.	.	.	.	8B-\	-ri-	8f\	-ri-	.	8dd\	-ri-	.
4BB-/	.	4D/	.	4BB-/	.	.	4B-\	-a	4f\	-a	.	4dd\	-a	.
4FF/	.	4F/	.	4FF/)	.	.	4r	.	4r	.	.	4r	.	.
=3	=3	=3	=3	=3	=3	=3	=3	=3	=3	=3	=3	=3	=3	=3
4F\	.	4FF/	.	(4F\	.	.	4.c\	Glo-	4.a\	Glo-	.	4.cc\	Glo-	.
4C/	.	4AA/	.	4C/)	.	.	.	.	.	.	.	.	.	.
.	.	.	.	.	.	.	8c\	-ri-	8a\	-ri-	.	8cc\	-ri-	.
!	!	!LO:LB:g=original	!	!	!	!	!	!	!	!	!	!	!	!
=-	=-	=-	=-	=-	=-	=-	=-	=-	=-	=-	=-	=-	=-	=-
*	*	*2\right	*	*	*	*	*	*	*	*	*	*	*	*
4AA/	.	2F\	.	4AA/	-ri-	.	4c\	-a	4a\	-a	.	4cc\	-a	.
*	*	*	*	*	*	*	*	*Xij	*	*Xij	*	*	*Xij	*
4FF/	.	.	.	4FF/	-a	.	4r	.	4r	.	.	4r	.	.
!	!	!	!	!	!	!	!LO:LB:g=original	!	!	!	!	!	!	!
=4	=4	=4	=4	=4	=4	=4	=4	=4	=4	=4	=4	=4	=4	=4
4C/	.	4C/	.	4C/	in	.	4B-\	in	4e\	in	.	4g\	in	.
!	!	!	!	!LO:LB:g=original	!	!	!	!	!	!	!	!	!	!
=-	=-	=-	=-	=-	=-	=-	=-	=-	=-	=-	=-	=-	=-	=-
4C/	.	4E/	.	4C/	ex-	.	4A\	ex-	4f\	ex-	.	4a\	ex-	.
!	!	!	!	!	!	!	!	!	!LO:LB:g=original	!	!	!LO:LB:g=original	!	!
=-	=-	=-	=-	=-	=-	=-	=-	=-	=-	=-	=-	=-	=-	=-
4C/	.	4G/	.	4C/	-cel-	.	4B-\	-cel-	4g\	-cel-	.	4b-\	-cel-	.
4C/	.	4E/	.	4C/	-sis	.	4G/	-sis	4g\	-sis	.	4b-\	-sis	.
=5	=5	=5	=5	=5	=5	=5	=5	=5	=5	=5	=5	=5	=5	=5
*	*	*	*	*	*	*	*2\right	*	*	*	*	*	*	*
4C/	.	4G\	.	(4C/	De-	.	2B-\	De-	4g\	De-	.	4b-\	De-	.
4E\	.	4C/	.	4E\)	.	.	.	.	4f\	-o	.	4a\	-o	.
4F\	.	4FF/	.	4F\	-o	.	4A\	-o	2r	.	.	2r	.	.
4r	.	4r	.	4r	.	.	4r	.	.	.	.	.	.	.
!LO:LB:g=original	!	!	!	!	!	!	!	!	!	!	!	!	!	!
=6	=6	=6	=6	=6	=6	=6	=6	=6	=6	=6	=6	=6	=6	=6
*	*	*	*	*	*	*	*	*	*2\right	*	*	*2\right	*	*
4D/	.	2BB-/	.	(4D\	Et	.	2F/	Et	2g\	Et	.	2bn\	Et	.
4F/	.	.	.	4F\)	.	.	.	.	.	.	.	.	.	.
4GG/	.	2GG/	.	(4GG/	in	.	2G/	in	2f\	in	.	2dd\	in	.
4BBn/	.	.	.	4BBn/)	.	.	.	.	.	.	.	.	.	.
=7	=7	=7	=7	=7	=7	=7	=7	=7	=7	=7	=7	=7	=7	=7
2.C/	.	4C/	.	2C/	ter-	.	2G/	ter-	(4.e\	ter-	.	(4.cc\	ter-	.
.	.	4E\	.	.	.	.	.	.	.	.	.	.	.	.
.	.	.	.	.	.	.	.	.	8d\)	.	.	8dd\)	.	.
.	.	4G\	.	4C/	-ra	.	4G/	-ra	4c\	-ra	.	4ee\	-ra	.
4C/	.	4r	.	4r	.	.	4r	.	4r	.	.	4r	.	.
=8	=8	=8	=8	=8	=8	=8	=8	=8	=8	=8	=8	=8	=8	=8
!	!	!	!	!	!	!	!	!	!	!	!	!LO:SIC:v:s=2bn\	!	!
4D\	.	2D/	.	(4D\	pax	.	2F/	pax	2g\	pax	.	2b-\	pax	.
4F\	.	.	.	4F\)	.	.	.	.	.	.	.	.	.	.
!	!	!	!	!LO:LB:g=original	!	!	!	!	!	!	!	!	!	!
=-	=-	=-	=-	=-	=-	=-	=-	=-	=-	=-	=-	=-	=-	=-
4GG/	.	2GG/	.	(4GG/	ho-	.	2G/	ho-	2f\	ho-	.	2dd\	ho-	.
!LO:SIC:v:s=4BBn/	!	!	!	!	!	!	!	!	!	!	!	!	!	!
4BB-/	.	.	.	4BBn/)	.	.	.	.	.	.	.	.	.	.
!	!	!LO:LB:g=original	!	!	!	!	!	!	!	!	!	!	!	!
=9	=9	=9	=9	=9	=9	=9	=9	=9	=9	=9	=9	=9	=9	=9
4.C/	.	4.C/	.	4.C/	-mi-	.	4.G/	-mi-	(4.e\	-mi-	.	4.cc\	-mi-	.
8C/	.	8c\	.	8C/	-ni-	.	8G/	-ni-	8d\)	ni-	.	8dd\	-ni-	.
4C/	.	2c\	.	4C/	-bus	.	4G/	-bus	4c\	-bus	.	4ee\	-bus	.
4r	.	.	.	4r	.	.	4r	.	4r	.	.	4r	.	.
!	!	!	!	!	!	!	!LO:LB:g=original	!	!	!	!	!	!	!
=10	=10	=10	=10	=10	=10	=10	=10	=10	=10	=10	=10	=10	=10	=10
4C/	.	8r	.	4c\	bo-	.	4c\	bo-	4cc\	bo-	.	4ee-X\	bo-	.
!	!	!LO:N:vis=16	!	!	!	!	!	!	!	!	!	!	!	!
.	.	8c'\	.	.	.	.	.	.	.	.	.	.	.	.
4A-X\	.	8r	.	4A-X\	-nae	.	4c\	-nae	4cc\	-nae	.	4ee-\	-nae	.
!	!	!LO:N:vis=16	!	!	!	!	!	!	!	!	!	!	!	!
.	.	8A-X'\	.	.	.	.	.	.	.	.	.	.	.	.
!	!	!	!	!	!	!	!	!	!LO:LB:g=original	!	!	!LO:LB:g=original	!	!
=-	=-	=-	=-	=-	=-	=-	=-	=-	=-	=-	=-	=-	=-	=-
4G\	.	8r	.	4G\	vo-	.	4c\	vo-	4cc\	vo-	.	4ee-\	vo-	.
!	!	!LO:N:vis=16	!	!	!	!	!	!	!	!	!	!	!	!
.	.	8G'\	.	.	.	.	.	.	.	.	.	.	.	.
4F#X\	.	8r	.	4F#X\	-lun-	.	4c\	-lun-	4cc\	-lun-	.	4ee-\	-lun-	.
!	!	!LO:N:vis=16	!	!	!	!	!	!	!	!	!	!	!	!
.	.	8F#X'\	.	.	.	.	.	.	.	.	.	.	.	.
=11	=11	=11	=11	=11	=11	=11	=11	=11	=11	=11	=11	=11	=11	=11
*2\right	*	*	*	*2\right	*	*	*	*	*	*	*	*	*	*
!	!	!	!	!	!	!	!	!	!	!	!	!LO:SIC:v:s=ee-	!	!
2G\	.	4G\	.	2G\	-ta-	.	2c\	-ta-	(4a\	-ta-	.	2ee\	-ta-	.
.	.	4D\	.	.	.	.	.	.	4f#X\)	.	.	.	.	.
4GG/	.	4GG/	.	4GG/	-tis	.	4Bn\	-tis	4g\	-tis	.	4dd\	-tis	.
4r	.	4r	.	4r	.	.	4r	.	8.r	.	.	8.r	.	.
.	.	.	.	.	.	.	.	.	16bn\	Lau-	.	16g/	Lau-	.
!LO:LB:g=original	!	!	!	!	!	!	!	!	!	!	!	!	!	!
=12	=12	=12	=12	=12	=12	=12	=12	=12	=12	=12	=12	=12	=12	=12
2G\	.	4G\	.	2G\	da-	.	2G/	da-	2f\	-da-	.	2dd\	-da-	.
.	.	4D\	.	.	.	.	.	.	.	.	.	.	.	.
!	!	!LO:LB:g=original	!	!	!	!	!	!	!	!	!	!	!	!
=-	=-	=-	=-	=-	=-	=-	=-	=-	=-	=-	=-	=-	=-	=-
2G\	.	4BBn/	.	2G\	-mus	.	2G/	-mus	2d\	-mus	.	2ff\	-mus	.
.	.	4GG/	.	.	.	.	.	.	.	.	.	.	.	.
!	!	!	!	!LO:LB:g=original	!	!	!	!	!	!	!	!	!	!
=13	=13	=13	=13	=13	=13	=13	=13	=13	=13	=13	=13	=13	=13	=13
2C/	.	4C/	.	2C/	te	.	2G/	te	2g\	te	.	2ee\	te	.
.	.	4G\	.	.	.	.	.	.	.	.	.	.	.	.
!	!	!	!	!	!	!	!	!	!LO:N:vis=8.	!	!	!LO:N:vis=8.	!	!
4c\	.	2c\	.	4c\	te	.	4E/	te	4.r	.	.	4.r	.	.
4r	.	.	.	4r	.	.	4r	.	.	.	.	.	.	.
.	.	.	.	.	.	.	.	.	16g\	a-	.	16g/	a-	.
.	.	.	.	.	.	.	.	.	16g\	-do-	.	16g/	-do-	.
=14	=14	=14	=14	=14	=14	=14	=14	=14	=14	=14	=14	=14	=14	=14
4F/	.	2G\	.	(4F\	ra-	.	2G/	ra-	2.f\	-ra-	.	2.dd\	-ra-	.
4D/	.	.	.	4D\)	.	.	.	.	.	.	.	.	.	.
!LO:SIC:v:s=4BBn/	!	!	!	!	!	!	!	!	!	!	!	!	!	!
4BB-/	.	2GG/	.	(4BBn/	-mus	.	2G/	-mus	.	.	.	.	.	.
4GG/	.	.	.	4GG/)	.	.	.	.	4d\	-mus	.	4ff\	-mus	.
=15	=15	=15	=15	=15	=15	=15	=15	=15	=15	=15	=15	=15	=15	=15
4C/	.	4C/	.	4C/	te	.	4c\	te	4g\	te	.	4ee\	te	.
4r	.	4r	.	4r	.	.	4r	.	4r	.	.	4r	.	.
!	!	!	!	!	!	!	!	!	!LO:LB:g=original	!	!	!	!	!
=-	=-	=-	=-	=-	=-	=-	=-	=-	=-	=-	=-	=-	=-	=-
8.E/L	.	8.G\L	.	(8.E/L	te	.	2r	.	8.g\L	te	.	2r	.	.
16D/Jk	.	16F\Jk	.	16D/Jk)	.	.	.	.	16f\Jk	.	.	.	.	.
4C/	.	4E\	.	4C/	te	.	.	.	4e\	te	.	.	.	.
!	!	!	!	!	!	!	!LO:LB:g=original	!	!	!	!	!LO:LB:g=original	!	!
=16	=16	=16	=16	=16	=16	=16	=16	=16	=16	=16	=16	=16	=16	=16
*tremolo	*	*	*	*	*	*	*	*	*	*	*	*	*	*
8G\L	.	4G\	.	4G\	Glo-	.	4B-\	Glo-	4g\	glo-	.	4a\	Glo-	.
8G\	.	.	.	.	.	.	.	.	.	.	.	.	.	.
8G\	.	4G\	.	8G\	-ri-	.	8B-\	-ri-	8g\	-ri-	.	8bn\	-ri-	.
8G\J	.	.	.	8G\	-fi-	.	8B-\	-fi-	8g\	-fi-	.	8cc\	-fi-	.
8G\L	.	4Bn\	.	4B-\	-ca-	.	4B-\	-ca-	4bn\	-ca-	.	4dd\	-ca-	.
8G\	.	.	.	.	.	.	.	.	.	.	.	.	.	.
8G\	.	4G\	.	4G\	-mus	.	4B-\	-mus	4g\	-mus	.	4ff\	-mus	.
8G\J	.	.	.	.	.	.	.	.	.	.	.	.	.	.
*Xtremolo	*	*	*	*	*	*	*	*	*	*	*	*	*	*
!	!	!	!	!LO:LB:g=original	!	!	!	!	!	!	!	!	!	!
=17	=17	=17	=17	=17	=17	=17	=17	=17	=17	=17	=17	=17	=17	=17
2C/	.	4c\	.	4c\	te	.	4c\	te	4g\	te	.	4ee\	te	.
.	.	4G\	.	8c\	be-	.	4r	.	4r	.	.	4r	.	.
.	.	.	.	8c\	-ne-	.	.	.	.	.	.	.	.	.
!	!	!LO:LB:g=original	!	!	!	!	!	!	!	!	!	!	!	!
=-	=-	=-	=-	=-	=-	=-	=-	=-	=-	=-	=-	=-	=-	=-
2c\	.	4E\	.	4c\	-di-	.	2r	.	2r	.	.	2r	.	.
.	.	4C/	.	8E\	-ci-	.	.	.	.	.	.	.	.	.
.	.	.	.	8E\	-mus	.	.	.	.	.	.	.	.	.
=18	=18	=18	=18	=18	=18	=18	=18	=18	=18	=18	=18	=18	=18	=18
!	!	!	!	!	!	!	!LO:N:vis=8.	!	!LO:N:vis=8.	!	!	!	!	!
4F\	.	4D\	.	4F\	te	.	4.r	.	4.r	.	.	4ryy	.	.
.	.	.	.	.	.	.	.	.	.	.	.	.	.	.
!	!	!	!	!	!	!	!	!	!	!	!	!LO:N:vis=16.	!	!
4F\	.	4F\	.	8F\	a-	.	.	.	.	.	.	16r	.	.
.	.	.	.	.	.	.	.	.	.	.	.	(16a\L	A-	.
.	.	.	.	8F\	-do-	.	16d\	A-	16a\	a-	.	16ff\J)	.	.
.	.	.	.	.	.	.	16d\	-do-	16f\	-do-	.	16dd\	-do-	.
!LO:LB:g=original	!	!	!	!	!	!	!	!	!	!	!	!	!	!
=-	=-	=-	=-	=-	=-	=-	=-	=-	=-	=-	=-	=-	=-	=-
4G\	.	4GG/	.	4G\	-ra-	.	4e\	-ra-	4e\	-ra-	.	4cc\	-ra-	.
!	!	!	!	!	!	!	!	!	!	!	!	!LO:SIC:v:s=4bn\	!	!
4GG/	.	4G\	.	4GG/	-mus	.	4G/	-mus	4d\	-mus	.	4b-\	-mus	.
=19	=19	=19	=19	=19	=19	=19	=19	=19	=19	=19	=19	=19	=19	=19
2C/	.	4C/	.	2C/	te	.	2G/	te.	2e\	te	.	2cc\	te	.
.	.	4E\	.	.	.	.	.	.	.	.	.	.	.	.
2r	.	4G\	.	2r	.	.	2r	.	2r	.	.	2r	.	.
.	.	4c\	.	.	.	.	.	.	.	.	.	.	.	.
!	!	!	!	!LO:PB:g=original	!	!	!LO:LB:g=original	!	!LO:LB:g=original	!	!	!	!	!
=20	=20	=20	=20	=20	=20	=20	=20	=20	=20	=20	=20	=20	=20	=20
!	!	!	!	!LO:TX:t=P:problem=t. 20-23 zapisane jako repetycja	!	!	!LO:TX:t=P:problem=t. 20-23 zapisane jako repetycja	!	!LO:TX:t=P:problem=t. 20-23 zapisane jako repetycja	!	!	!LO:TX:t=P:problem=t. 20-23 zapisane jako repetycja	!	!
(8qqGG/	.	.	.	.	.	.	.	.	.	.	.	.	.	.
*tremolo	*	*	*	*	*	*	*	*	*	*	*	*	*	*
8G\L)	.	4G\	.	4G\	Glo-	.	4B-\	Glo-	4g\	glo-	.	4a\	Glo-	.
8G\	.	.	.	.	.	.	.	.	.	.	.	.	.	.
8G\	.	4G\	.	8G\	-ri-	.	8B-\	-ri-	8g\	-ri-	.	8bn\	-ri-	.
8G\	.	.	.	8G\	-fi-	.	8B-\	-fi-	8g\	-fi-	.	8cc\	-fi-	.
8G\	.	4Bn\	.	4B-\	-ca-	.	4B-\	-ca-	4bn\	-ca-	.	4dd\	-ca-	.
8G\	.	.	.	.	.	.	.	.	.	.	.	.	.	.
8G\	.	4G\	.	4G\	-mus	.	4B-\	-mus	4g\	-mus	.	4ff\	-mus	.
8G\J	.	.	.	.	.	.	.	.	.	.	.	.	.	.
*Xtremolo	*	*	*	*	*	*	*	*	*	*	*	*	*	*
=21	=21	=21	=21	=21	=21	=21	=21	=21	=21	=21	=21	=21	=21	=21
2C/	.	4c\	.	4c\	te	.	4c\	te	4g\	te	.	4ee\	te	.
.	.	4G\	.	8c\	be-	.	4r	.	4r	.	.	4r	.	.
.	.	.	.	8c\	-ne-	.	.	.	.	.	.	.	.	.
2c\	.	4E\	.	4c\	-di-	.	2r	.	2r	.	.	2r	.	.
.	.	4C/	.	8E\	-ci-	.	.	.	.	.	.	.	.	.
.	.	.	.	8E\	-mus	.	.	.	.	.	.	.	.	.
!	!	!LO:LB:g=original	!	!	!	!	!	!	!	!	!	!	!	!
=22	=22	=22	=22	=22	=22	=22	=22	=22	=22	=22	=22	=22	=22	=22
!	!	!	!	!	!	!	!LO:N:vis=8.	!	!LO:N:vis=8.	!	!	!	!	!
4F\	.	4D\	.	4F\	te	.	4.r	.	4.r	.	.	4ryy	.	.
.	.	.	.	.	.	.	.	.	.	.	.	.	.	.
!	!	!	!	!	!	!	!	!	!	!	!	!LO:N:vis=16.	!	!
4F\	.	4F\	.	8F\	a-	.	.	.	.	.	.	16r	.	.
.	.	.	.	.	.	.	.	.	.	.	.	(16a\L	A-	.
.	.	.	.	8F\	-do-	.	16d\	A-	16a\	a-	.	16ff\J)	.	.
.	.	.	.	.	.	.	16d\	-do-	16f\	-do-	.	16dd\	-do-	.
4G\	.	2G\	.	4G\	-ra-	.	4e\	-ra-	4e\	-ra-	.	4cc\	-ra-	.
!	!	!	!	!	!	!	!	!	!	!	!	!LO:SIC:v:s=4bn\	!	!
4GG/	.	.	.	4GG/	-mus	.	4G/	-mus	4d\	-mus	.	4b-\	-mus	.
=23	=23	=23	=23	=23	=23	=23	=23	=23	=23	=23	=23	=23	=23	=23
2C/	.	2C/	.	2C/	te	.	2G/	te.	2e\	te	.	2cc\	te	.
!LO:TX:b:t=Gratias	!	!	!	!	!	!	!	!	!LO:TX:a:t=Adag.	!	!	!	!	!
2r;	.	2r;	.	2r	.	.	2r	.	2r	.	.	2r	.	.
!LO:PB:g=original	!	!	!	!	!	!	!	!	!	!	!	!	!	!
=24||	=24||	=24||	=24||	=24||	=24||	=24||	=24||	=24||	=24||	=24||	=24||	=24||	=24||	=24||
*k[]	*	*k[]	*	*k[]	*	*	*k[]	*	*k[]	*	*	*k[]	*	*
*M3/4	*	*M3/4	*	*M3/4	*	*	*M3/4	*	*M3/4	*	*	*M3/4	*	*
*	*	*	*	*	*	*	*met(3)	*	*met(3)	*	*	*met(3)	*	*
*tremolo	*	*	*	*	*	*	*	*	*	*	*	*	*	*
(8qqAA/	.	.	.	.	.	.	.	.	.	.	.	.	.	.
!LO:TX:a:t=Adag.	!	!LO:TX:b:t=Gratias	!	!	!	!	!	!	!	!	!	!	!	!
!	!LO:DY:b:rj	!LO:TX:a:t=Adag.	!LO:DY:b:rj	!LO:TX:a:t=Adag..	!	!	!LO:TX:a:t=Adag.	!	!	!	!	!LO:TX:a:t=Adag.	!	!
8A\L)	f	4AA/	fp	4.A\	Gra-	.	4.e\	Gra-	4.a\	Gra-	.	4.cc\	Gra-	.
8A\	.	.	.	.	.	.	.	.	.	.	.	.	.	.
8A\	.	4A\	.	.	.	.	.	.	.	.	.	.	.	.
8A\	.	.	.	8A\	-ti-	.	8e\	-ti-	8a\	-ti-	.	8cc\	-ti-	.
8A\	.	4A\	.	4A\	-as	.	4e\	-as	4a\	-as	.	4cc\	-as	.
8A\J	.	.	.	.	.	.	.	.	.	.	.	.	.	.
!	!	!	!	!	!	!	!	!	!	!	!	!LO:LB:g=original	!	!
=25	=25	=25	=25	=25	=25	=25	=25	=25	=25	=25	=25	=25	=25	=25
*	*	*	*	*	*ij	*	*	*ij	*	*ij	*	*	*ij	*
8E\L	.	4E\	.	4.E\	Gra-	.	4.e\	Gra-	4.g#X\	Gra-	.	4.b\	Gra-	.
8E\	.	.	.	.	.	.	.	.	.	.	.	.	.	.
8E\	.	4E\	.	.	.	.	.	.	.	.	.	.	.	.
8E\	.	.	.	8E\	-ti-	.	8e\	-ti-	8g#\	-ti-	.	8b\	-ti-	.
8E\	.	4E\	.	4E\	-as	.	4e\	-as	4g#\	-as	.	4b\	-as	.
*	*	*	*	*	*Xij	*	*	*Xij	*	*Xij	*	*	*Xij	*
8E\J	.	.	.	.	.	.	.	.	.	.	.	.	.	.
=26	=26	=26	=26	=26	=26	=26	=26	=26	=26	=26	=26	=26	=26	=26
8D\L	.	4D\	.	4D/	A-	.	4A/	A-	4fn\	A-	.	4a\	a-	.
8D\	.	.	.	.	.	.	.	.	.	.	.	.	.	.
8D\	.	2F\	.	4D/	-gi-	.	4c\	-gi-	4f\	-gi-	.	4a\	-gi-	.
8D\J	.	.	.	.	.	.	.	.	.	.	.	.	.	.
*Xtremolo	*	*	*	*	*	*	*	*	*	*	*	*	*	*
8Fn\L	.	.	.	4Fn\	-mus	.	4c\	-mus	4d#X\	-mus	.	4a\	-mus	.
8F\J	.	.	.	.	.	.	.	.	.	.	.	.	.	.
!	!	!LO:LB:g=original	!	!	!	!	!	!	!	!	!	!	!	!
=27	=27	=27	=27	=27	=27	=27	=27	=27	=27	=27	=27	=27	=27	=27
4E\	.	4E\	.	4E\	ti-	.	4B\	ti-	4e\	ti-	.	(8g#X\L	ti-	.
.	.	.	.	.	.	.	.	.	.	.	.	8ee\J)	.	.
.	.	(8qd#X/	.	.	.	.	.	.	.	.	.	.	.	.
4E\	.	4e\)	.	4E\	-bi	.	4B\	-bi	4g#X\	-bi	.	4ee\	-bi	.
!	!	!	!LO:DY:b	!	!	!	!	!	!	!	!	!	!	!
4r;	.	4r;	fp	4r	.	.	4r	.	4r	.	.	4r	.	.
=28||	=28	=28||	=28	=28	=28	=28	=28	=28	=28	=28	=28	=28	=28	=28
(8qD/	.	.	.	.	.	.	.	.	.	.	.	.	.	.
*tremolo	*	*	*	*	*	*	*	*	*	*	*	*	*	*
8d\L)	.	4D\	.	2.r	.	.	(4.d\	pro-	2.r	.	.	(4.ff\	p(ro)-	.
8d\	.	.	.	.	.	.	.	.	.	.	.	.	.	.
8d\	.	4d\	.	.	.	.	.	.	.	.	.	.	.	.
8d\	.	.	.	.	.	.	8c\)	.	.	.	.	8ee\)	.	.
8d\	.	4r	.	.	.	.	4B\	-pter	.	.	.	4dd\	-ter	.
8d\J	.	.	.	.	.	.	.	.	.	.	.	.	.	.
=29	=29	=29	=29	=29	=29	=29	=29	=29	=29	=29	=29	=29	=29	=29
(8qD/	.	.	.	.	.	.	.	.	.	.	.	.	.	.
8d\L)	.	4D\	.	(4.B\	ma-	.	2.r	.	(4.dd\	ma-	.	2.r	.	.
8d\	.	.	.	.	.	.	.	.	.	.	.	.	.	.
8d\	.	4d\	.	.	.	.	.	.	.	.	.	.	.	.
8d\	.	.	.	8A\)	.	.	.	.	8cc\)	.	.	.	.	.
8d\	.	4r	.	4G#X\	-gnam	.	.	.	4b\	-gnam	.	.	.	.
8d\J	.	.	.	.	.	.	.	.	.	.	.	.	.	.
!LO:LB:g=original	!	!	!	!LO:LB:g=original	!	!	!LO:LB:g=original	!	!LO:LB:g=original	!	!	!	!	!
=30	=30	=30	=30	=30	=30	=30	=30	=30	=30	=30	=30	=30	=30	=30
(8qAA/	.	.	.	.	.	.	.	.	.	.	.	.	.	.
8A\L)	.	4AA/	.	2.r	.	.	4.c\	Glo-	2.r	.	.	(4.ee\	Glo-	.
8A\	.	.	.	.	.	.	.	.	.	.	.	.	.	.
8A\	.	4A\	.	.	.	.	.	.	.	.	.	.	.	.
8A\	.	.	.	.	.	.	8B\	-ri-	.	.	.	8dd\)	-ri-	.
8A\	.	4r	.	.	.	.	4A\	-am	.	.	.	4cc\	-am	.
8A\J	.	.	.	.	.	.	.	.	.	.	.	.	.	.
=31	=31	=31	=31	=31	=31	=31	=31	=31	=31	=31	=31	=31	=31	=31
*	*	*	*	*	*	*	*	*ij	*	*	*	*	*	*
!	!	!	!	!	!	!	!	!	!	!	!	!LO:TX:t=P:problem=t. 31 zapisany jako repetycja	!	!
8E\L	.	4E\	.	4E\	Glo-	.	4c\	Glo-	4a\	Glo-	.	(4.ee\	Glo-	.
8E\	.	.	.	.	.	.	.	.	.	.	.	.	.	.
8E\	.	4E\	.	4E\	-ri-	.	4B\	-ri-	4g#X\	-ri-	.	.	.	.
8E\	.	.	.	.	.	.	.	.	.	.	.	8dd\)	-ri-	.
8E\	.	4E\	.	4E\	-am	.	4c\	-am	4a\	-am	.	4cc\	-am	.
*	*	*	*	*	*	*	*	*Xij	*	*	*	*	*	*
8E\J	.	.	.	.	.	.	.	.	.	.	.	.	.	.
*Xtremolo	*	*	*	*	*	*	*	*	*	*	*	*	*	*
=32	=32	=32	=32	=32	=32	=32	=32	=32	=32	=32	=32	=32	=32	=32
!	!	!	!	!	!	!	!	!	!LO:SIC:v:s=4g#\	!	!	!	!	!
4E\	.	4E\	.	4E\	tu-	.	4e\	tu-	4g\	tu-	.	4b\	tu-	.
!	!	!	!	!	!	!	!	!	!LO:SIC:v:s=4g#\	!	!	!	!	!
4E\	.	4E\	.	4E\	-am	.	4E/	-am	4g\	-am	.	4b\	-am	.
!	!	!LO:LB:g=original	!	!	!	!	!	!	!	!	!	!	!	!
=-	=-	=-	=-	=-	=-	=-	=-	=-	=-	=-	=-	=-	=-	=-
!	!	!	!	!	!	!LO:DY:b:t=fo	!	!	!	!	!	!	!	!
4r	.	4r	.	4r	.	f	4r	.	4r	.	.	4r	.	.
=33	=33	=33	=33	=33	=33	=33	=33	=33	=33	=33	=33	=33	=33	=33
!	!	!	!	!	!	!	!	!	!	!	!LO:DY:b:t=po	!	!	!LO:DY:b:t=po
4F\	.	8r	.	(4F\	tu-	.	2.F/	tu-	2.a\	tu-	p	2.cc\	tu-	p
!	!	!LO:N:vis=16	!	!	!	!	!	!	!	!	!	!	!	!
.	.	8F\	.	.	.	.	.	.	.	.	.	.	.	.
4E\	.	8r	.	4E\	.	.	.	.	.	.	.	.	.	.
!	!	!LO:N:vis=16	!	!	!	!	!	!	!	!	!	!	!	!
.	.	8E\	.	.	.	.	.	.	.	.	.	.	.	.
4D#X\	.	8r	.	4D#X\)	.	.	.	.	.	.	.	.	.	.
!	!	!LO:N:vis=16	!	!	!	!	!	!	!	!	!	!	!	!
.	.	8D#X/	.	.	.	.	.	.	.	.	.	.	.	.
!	!	!	!	!	!	!	!	!	!	!	!	!LO:LB:g=original	!	!
=34	=34	=34	=34	=34	=34	=34	=34	=34	=34	=34	=34	=34	=34	=34
2.E;\	.	2.E;\	.	2.E;>\	-am	.	2.E;/	-am	2.g#X\	-am.	.	2.b\	-am.	.
=35||	=35||	=35||	=35||	=35||	=35||	=35||	=35||	=35||	=35||	=35||	=35||	=35||	=35||	=35||
*k[b-]	*	*k[b-]	*	*k[b-]	*	*	*k[b-]	*	*k[b-]	*	*	*k[b-]	*	*
*M2/4	*	*M2/4	*	*M2/4	*	*	*M2/4	*	*M2/4	*	*	*M2/4	*	*
!LO:TX:b:t=Dne	!	!LO:TX:b:t=Domine	!	!	!	!	!	!	!	!	!	!	!	!
!LO:TX:a:t=Andte	!	!LO:TX:a:t=Andte.	!	!	!	!	!LO:TX:a:t=Andte.	!	!LO:TX:a:t=Andte	!	!	!LO:TX:a:t=Andte	!	!
4F\	.	8F\L	.	(8c\L	Do-	.	2r	.	2r	.	.	2r	.	.
.	.	8F\	.	8A\J)	.	.	.	.	.	.	.	.	.	.
8F\L	.	8F\	.	8F\	-mi-	.	.	.	.	.	.	.	.	.
8F\J	.	8F\J	.	8F\	-ne	.	.	.	.	.	.	.	.	.
!	!	!	!	!LO:LB:g=original	!	!	!	!	!	!	!	!	!	!
=36	=36	=36	=36	=36	=36	=36	=36	=36	=36	=36	=36	=36	=36	=36
8C/L	.	8E\L	.	4c\	De-	.	4G/	De-	(16e\LL	De-	.	(16g/LL	De-	.
.	.	.	.	.	.	.	.	.	16f\	.	.	16a/	.	.
8E/	.	8G\	.	.	.	.	.	.	16e\	.	.	16g/	.	.
.	.	.	.	.	.	.	.	.	16f\JJ)	.	.	16a/JJ)	.	.
8G/	.	8E\	.	4C/	-us	.	4G/	-us	4e\	-us	.	4g/	-us	.
8E/J	.	8C\J	.	.	.	.	.	.	.	.	.	.	.	.
!LO:LB:g=original	!	!LO:PB:g=original	!	!	!	!	!	!	!	!	!	!	!	!
=37	=37	=37	=37	=37	=37	=37	=37	=37	=37	=37	=37	=37	=37	=37
*tremolo	*	*	*	*	*	*	*	*	*	*	*	*	*	*
!	!	!LO:TX:t=P:problem=mixed beam	!	!	!	!	!	!	!	!	!	!	!	!
8F\L	.	8C/L	.	(8c\L	Rex	.	2r	.	2r	.	.	2r	.	.
8F\	.	8AA/	.	8A\J	.	.	.	.	.	.	.	.	.	.
8F\	.	8FF/	.	8F\)	.	.	.	.	.	.	.	.	.	.
8F\J	.	8F\J	.	8F\	Cae-	.	.	.	.	.	.	.	.	.
*Xtremolo	*	*	*	*	*	*	*	*	*	*	*	*	*	*
!	!	!	!	!	!	!	!LO:LB:g=original	!	!LO:LB:g=original	!	!	!	!	!
=38	=38	=38	=38	=38	=38	=38	=38	=38	=38	=38	=38	=38	=38	=38
!	!	!	!	!	!	!	!LO:TX:t=P:problem=nadmiarowy takt	!	!	!	!	!	!	!
2ryy	.	2ryy	.	2ryy	.	.	2r	.	2ryy	.	.	2ryy	.	.
=39	=39	=39	=39	=39	=39	=39	=39	=39	=39	=39	=39	=39	=39	=39
8C/L	.	8E\L	.	4c\	-les-	.	4G/	les-	(16g\LL	le-	.	(16b-/LL	le-	.
.	.	.	.	.	.	.	.	.	16f\	.	.	16a/	.	.
8E/	.	8G\	.	.	.	.	.	.	16f\	.	.	16a/	.	.
.	.	.	.	.	.	.	.	.	16e\JJ)	.	.	16g/JJ)	.	.
8G/	.	8E\	.	4C/	-tis	.	4e\	-tis	4e\	-stis	.	4g/	-stis	.
8E/J	.	8C\J	.	.	.	.	.	.	.	.	.	.	.	.
=40	=40	=40	=40	=40	=40	=40	=40	=40	=40	=40	=40	=40	=40	=40
8C/L	.	4C/	.	4C/	De-	.	4G/	De-	8.g\L	De-	.	8.b-/L	De-	.
8C/	.	.	.	.	.	.	.	.	.	.	.	.	.	.
.	.	.	.	.	.	.	.	.	16f\Jk	.	.	16a/Jk	.	.
8D/	.	8F\L	.	4C/	-us	.	4G/	-us	4e\	-us	.	4g/	-us	.
8E/J	.	8E\J	.	.	.	.	.	.	.	.	.	.	.	.
=41	=41	=41	=41	=41	=41	=41	=41	=41	=41	=41	=41	=41	=41	=41
*	*	*	*	*	*	*	*	*	*	*ij	*	*	*	*
8F\L	.	4F\	.	4F\	Pa-	.	4c\	[[Pa-	8.a\L	De-	.	8.cc\L	De-	.
8F\	.	.	.	.	.	.	.	.	.	.	.	.	.	.
.	.	.	.	.	.	.	.	.	16g\Jk	.	.	16b-\Jk	.	.
8G\	.	8E\L	.	4F\	-ter	.	4c\	-ter]]	8f\	-us	.	8a\	-us	.
*	*	*	*	*	*	*	*	*	*	*Xij	*	*	*	*
!	!	!	!	!	!	!	!	!	!	!	!	!LO:LB:g=original	!	!
=-	=-	=-	=-	=-	=-	=-	=-	=-	=-	=-	=-	=-	=-	=-
8A\J	.	8F\J	.	.	.	.	.	.	8a\	Pa-	.	8ff\	Pa-	.
=42	=42	=42	=42	=42	=42	=42	=42	=42	=42	=42	=42	=42	=42	=42
4BB-/	.	8D/L	.	8D/L	om-	.	4B-\	om-	8f\	-ter	.	8dd\	-ter	.
.	.	8BB-/J	.	8BB-/J	.	.	.	.	8b-X\	om-	.	8gg\	om-	.
8C/L	.	4C/	.	8C/	-ni-	.	8c\	-ni-	8a\	-ni-	.	8ff\	-ni-	.
8C/J	.	.	.	8C/	-po-	.	8B-\	-po-	8g\	-po-	.	8ee\	-po-	.
!	!	!	!	!LO:LB:g=original	!	!	!	!	!	!	!	!	!	!
=43	=43	=43	=43	=43	=43	=43	=43	=43	=43	=43	=43	=43	=43	=43
8FF/L	.	8F/L	.	4FF/	-tens	.	4c\	-tens	4a\	-tens	.	4ff\	-tens.	.
8AA/	.	8C/J	.	.	.	.	.	.	.	.	.	.	.	.
8C/	.	8AA/L	.	4r	.	.	4r	.	4r	.	.	4r	.	.
8F/J	.	8FF/J	.	.	.	.	.	.	.	.	.	.	.	.
!	!	!LO:LB:g=original	!	!	!	!	!	!	!	!	!	!	!	!
=44	=44	=44	=44	=44	=44	=44	=44	=44	=44	=44	=44	=44	=44	=44
*tremolo	*	*	*	*	*	*	*	*	*	*	*	*	*	*
!	!	!	!	!	!	!	!	!	!	!	!LO:DY:b:rj:t=po	!	!	!
8C/L	.	4C/	.	4C/	De-	.	(16B-/LL	De-	(16g\LL	De-	p	4cc\	De-	.
.	.	.	.	.	.	.	16A/	.	16f\	.	.	.	.	.
8C/	.	.	.	.	.	.	16A/	.	16f\	.	.	.	.	.
.	.	.	.	.	.	.	16G/JJ)	.	16e\JJ)	.	.	.	.	.
8C/	.	4c\	.	4C/	-us	.	4G/	-us	4e\	-us	.	4cc\	-us	.
8C/J	.	.	.	.	.	.	.	.	.	.	.	.	.	.
!	!	!	!	!	!	!	!LO:LB:g=original	!	!LO:LB:g=original	!	!	!	!	!
=45	=45	=45	=45	=45	=45	=45	=45	=45	=45	=45	=45	=45	=45	=45
8F\L	.	4FF/	.	4F\	Pa-	.	(16c/LL	Pa-	(16a\LL	Pa-	.	4ff\	Pa-	.
.	.	.	.	.	.	.	16B-/	.	16g\	.	.	.	.	.
8F\	.	.	.	.	.	.	16B-/	.	16g\	.	.	.	.	.
.	.	.	.	.	.	.	16A/JJ)	.	16f\JJ)	.	.	.	.	.
!	!	!	!	!	!	!	!	!	!	!	!	!LO:TX:t=P:problem=mixed beam	!	!
8F\	.	4F\	.	4FF/	-ter	.	4A/	-ter	4f\	-ter	.	8f/L	-ter	.
8F\J	.	.	.	.	.	.	.	.	.	.	.	8ff\J	.	.
*Xtremolo	*	*	*	*	*	*	*	*	*	*	*	*	*	*
!LO:LB:g=original	!	!	!	!	!	!	!	!	!	!	!	!	!	!
=46	=46	=46	=46	=46	=46	=46	=46	=46	=46	=46	=46	=46	=46	=46
*	*	*	*	*	*ij	*	*	*	*	*	*	*	*	*
4BB-/	.	8D/L	.	8BB-/	Pa-	.	8d\	Pa-	8b-\	Pa-	.	8dd\	Pa-	.
.	.	8BB-/	.	16BB-/	-ter	.	16d\	-ter	16b-\	-ter	.	16gg\	-ter	.
*	*	*	*	*	*Xij	*	*	*	*	*	*	*	*	*
.	.	.	.	16BB-/	om-	.	16d\	om-	16b-\	om-	.	16gg\	om-	.
4C/	.	8C/	.	8C/	-ni-	.	8c\	-ni-	8a\	-ni-	.	8ff\	-ni-	.
.	.	8C/J	.	8C/	-po-	.	8c\	-po-	8g\	-po-	.	8ee\	-po-	.
!	!	!	!	!	!	!	!	!	!	!	!	!LO:LB:g=original	!	!
=47	=47	=47	=47	=47	=47	=47	=47	=47	=47	=47	=47	=47	=47	=47
4D/	.	8r	.	4D/	-tens	.	4f\	-tens	4f\	-tens	.	4dd\	-tens	.
.	.	8D/	.	.	.	.	.	.	.	.	.	.	.	.
*	*	*	*	*	*ij	*	*	*	*	*	*	*	*	*
4BB-/	.	8r	.	4BB-/	om-	.	4d\	om-	4b-\	om-	.	4b-\	om-	.
.	.	8BB-/	.	.	.	.	.	.	.	.	.	.	.	.
=48	=48	=48	=48	=48	=48	=48	=48	=48	=48	=48	=48	=48	=48	=48
4C/	.	8r	.	4C/	-ni-	.	4B-\	-ni-	4g\	-ni	.	4cc\	-ni-	.
.	.	8C/	.	.	.	.	.	.	.	.	.	.	.	.
4C/	.	8r	.	4C/	-po-	.	4c\	-po-	4e\	po-	.	4cc\	-po-	.
.	.	8c\	.	.	.	.	.	.	.	.	.	.	.	.
!	!	!LO:LB:g=original	!	!	!	!	!	!	!	!	!	!	!	!
=49	=49	=49	=49	=49	=49	=49	=49	=49	=49	=49	=49	=49	=49	=49
4FF/	.	8F/L	.	4FF/	-tens	.	4F/	-tens	4a\	-tens	.	4f/	-tens.	.
*	*	*	*	*	*Xij	*	*	*	*	*	*	*	*	*
.	.	8C/	.	.	.	.	.	.	.	.	.	.	.	.
4r	.	8FF/J	.	4r	.	.	4r	.	4r	.	.	4r	.	.
.	.	8r	.	.	.	.	.	.	.	.	.	.	.	.
!	!	!	!	!LO:LB:g=original	!	!	!LO:PB:g=original	!	!LO:PB:g=original	!	!	!	!	!
=50||	=50||	=50||	=50||	=50||	=50||	=50||	=50||	=50||	=50||	=50||	=50||	=50||	=50||	=50||
*k[b-e-]	*	*k[b-e-]	*	*k[b-e-]	*	*	*k[b-e-]	*	*k[b-e-]	*	*	*k[b-e-]	*	*
!LO:TX:a:t=Allegto	!	!	!	!	!	!	!	!	!	!	!	!	!	!
!LO:TX:b:t=Quoniam.	!	!LO:TX:b:t=Quoniam	!	!	!	!	!	!	!	!	!	!LO:TX:a:t=Allgto.	!	!
!LO:TX:t=P:problem=mixed beam	!	!LO:TX:a:t=Allegto.	!	!	!	!	!LO:TX:a:t=Allegto	!	!LO:TX:a:t=Allegto.	!	!	!	!	!
8BB-/L	.	8.BB-\L	.	8.BB-/	Quo-	.	8.B-\	Quo-	8.f\	Quo-	.	8.dd\	Quo-	.
8B-\	.	.	.	.	.	.	.	.	.	.	.	.	.	.
.	.	16D\Jk	.	16D/	-ni-	.	16B-\	-ni-	16f\	-ni-	.	16dd\	-ni-	.
8B-\	.	8F\L	.	8F\	-am	.	8B-\	-am	8f\	-am	.	8dd\	-am	.
8B-\J	.	8B-\J	.	8B-\	tu	.	8B-\	tu	8f\	tu	.	8dd\	tu	.
=51	=51	=51	=51	=51	=51	=51	=51	=51	=51	=51	=51	=51	=51	=51
*tremolo	*	*	*	*	*	*	*	*	*	*	*	*	*	*
8B-\L	.	4B-\	.	4F\	so-	.	8.d\L	so-	4f\	so-	.	8.ff\L	so-	.
8B-\	.	.	.	.	.	.	.	.	.	.	.	.	.	.
.	.	.	.	.	.	.	16c\Jk	.	.	.	.	16ee-\Jk	.	.
8B-\	.	4BB-/	.	4F\	-lus	.	4B-\	-lus	4f\	-lus	.	4dd\	-lus	.
8B-\J	.	.	.	.	.	.	.	.	.	.	.	.	.	.
*Xtremolo	*	*	*	*	*	*	*	*	*	*	*	*	*	*
=52	=52	=52	=52	=52	=52	=52	=52	=52	=52	=52	=52	=52	=52	=52
4.BB-/	.	4BB-/	.	4BB-/	tu	.	4B-\	tu	4f\	tu	.	4b-\	tu	.
.	.	8BB-/L	.	8BB-/	so-	.	8B-\	so-	8f\	so-	.	8b-\	so-	.
8D/	.	8D/J	.	8D/	-lus	.	8B-\	-lus	8f\	-lus	.	8dd\	-lus	.
!LO:LB:g=original	!	!	!	!	!	!	!	!	!	!	!	!LO:PB:g=original	!	!
=53	=53	=53	=53	=53	=53	=53	=53	=53	=53	=53	=53	=53	=53	=53
8F/L	.	4F\	.	8.F\	Do-	.	8.d\	Do-	8.f\	Do-	.	8.ff\	Do-	.
8F/	.	.	.	.	.	.	.	.	.	.	.	.	.	.
.	.	.	.	16F\	-mi-	.	16c\	-mi-	16f\	-mi-	.	16ee-\	-mi-	.
8BB-/	.	4BB-/	.	4BB-/	-nus	.	4B-\	-nus	4f\	-nus	.	4dd\	-nus	.
8BB-/J	.	.	.	.	.	.	.	.	.	.	.	.	.	.
!	!	!LO:LB:g=original	!	!	!	!	!	!	!	!	!	!	!	!
=54	=54	=54	=54	=54	=54	=54	=54	=54	=54	=54	=54	=54	=54	=54
*tremolo	*	*	*	*	*	*	*	*	*	*	*	*	*	*
8F\L	.	4FF/	.	4F\	Je-	.	4c\	Je-	4g\	Je-	.	4ee-\	Je-	.
8F\	.	.	.	.	.	.	.	.	.	.	.	.	.	.
8F\	.	4F\	.	4F\	-su	.	4B-\	-su	4f\	-su	.	4dd\	-su	.
8F\J	.	.	.	.	.	.	.	.	.	.	.	.	.	.
!	!	!	!	!LO:LB:g=original	!	!	!LO:LB:g=original	!	!	!	!	!	!	!
=55	=55	=55	=55	=55	=55	=55	=55	=55	=55	=55	=55	=55	=55	=55
8F\L	.	4FF/	.	2F\	Chr(i-	.	(4F/	Chri-	(4a\	Chri-	.	(4cc\	Chri-	.
8F\	.	.	.	.	.	.	.	.	.	.	.	.	.	.
8F\	.	4F\	.	.	.	.	4f\)	.	4b-\)	.	.	4b-\)	.	.
8F\J	.	.	.	.	.	.	.	.	.	.	.	.	.	.
*Xtremolo	*	*	*	*	*	*	*	*	*	*	*	*	*	*
=56	=56	=56	=56	=56	=56	=56	=56	=56	=56	=56	=56	=56	=56	=56
8FF/L	.	8F/L	.	4FF/	-st)e	.	4c\	-ste	4a\	-ste	.	4a\	-ste	.
8AA/	.	8C/	.	.	.	.	.	.	.	.	.	.	.	.
!	!	!	!	!	!	!	!	!	!LO:LB:g=original	!	!	!	!	!
=-	=-	=-	=-	=-	=-	=-	=-	=-	=-	=-	=-	=-	=-	=-
8C/	.	8AA/	.	4r	.	.	4r	.	4r	.	.	4r	.	.
8F/J	.	8FF/J	.	.	.	.	.	.	.	.	.	.	.	.
=57	=57	=57	=57	=57	=57	=57	=57	=57	=57	=57	=57	=57	=57	=57
4FF/	.	4F\	.	8.F\	Quo-	.	8.c\	Quo-	8.f\	Quo-	.	8.cc\	Quo-	.
.	.	.	.	16F\	-ni-	.	16c\	-ni-	16f\	-ni-	.	16cc\	-ni-	.
4F\	.	4FF/	.	8F\	-am	.	8c\	-am	8f\	-am	.	8cc\	-am	.
.	.	.	.	8F\	tu	.	8c\	tu	8f\	tu	.	8cc\	tu	.
=58	=58	=58	=58	=58	=58	=58	=58	=58	=58	=58	=58	=58	=58	=58
4C/	.	8C/L	.	2r	.	.	(16c\LL	so-	(16a\LL	so-	.	2r	.	.
.	.	.	.	.	.	.	16B-\	.	16g\	.	.	.	.	.
.	.	8E-/J	.	.	.	.	16B-\	.	16g\	.	.	.	.	.
.	.	.	.	.	.	.	16A\JJ)	.	16f#X\JJ)	.	.	.	.	.
4c\	.	8G\L	.	.	.	.	4B-\	-lus	4g\	-lus	.	.	.	.
.	.	8c\J	.	.	.	.	.	.	.	.	.	.	.	.
=59	=59	=59	=59	=59	=59	=59	=59	=59	=59	=59	=59	=59	=59	=59
*tremolo	*	*	*	*	*	*	*	*	*	*	*	*	*	*
8C/L	.	8C/L	.	4B-\	tu	.	2r	.	2r	.	.	4gg\	Tu	.
8C/	.	8C/J	.	.	.	.	.	.	.	.	.	.	.	.
!	!	!	!	!	!	!	!	!	!	!	!	!LO:LB:g=original	!	!
=-	=-	=-	=-	=-	=-	=-	=-	=-	=-	=-	=-	=-	=-	=-
8C/	.	8En/L	.	8B-\	so-	.	.	.	.	.	.	8gg\	so-	.
8C/J	.	8C/J	.	8B-\	-lus	.	.	.	.	.	.	8gg\	-lus	.
*Xtremolo	*	*	*	*	*	*	*	*	*	*	*	*	*	*
=60	=60	=60	=60	=60	=60	=60	=60	=60	=60	=60	=60	=60	=60	=60
4C/	.	8G\L	.	(16B-\LL	Do-	.	4r	.	4r	.	.	(16gg\LL	Do-	.
.	.	.	.	16A\	.	.	.	.	.	.	.	16ff\	.	.
.	.	8E-\J	.	16A\	.	.	.	.	.	.	.	16ff\	.	.
.	.	.	.	16G#X\JJ)	.	.	.	.	.	.	.	16een\JJ)	.	.
!	!	!LO:LB:g=original	!	!	!	!	!	!	!	!	!	!	!	!
=-	=-	=-	=-	=-	=-	=-	=-	=-	=-	=-	=-	=-	=-	=-
!	!	!LO:TX:t=P:problem=mixed beam	!	!	!	!	!	!	!	!	!	!	!	!
8F\L	.	8F\L	.	8A\	mi-	.	8r	.	8r	.	.	8ff\	-mi-	.
8F\J	.	8FF/J	.	8F\	-nus	.	8c\	tu	8a\	Tu	.	8cc\	-nus	.
!	!	!	!	!	!	!	!LO:LB:g=original	!	!	!	!	!	!	!
=61	=61	=61	=61	=61	=61	=61	=61	=61	=61	=61	=61	=61	=61	=61
8BB-/L	.	8D/L	.	8D/	so-	.	8d\	so-	8b-\	so-	.	8dd\	So-	.
!	!	!	!	!LO:LB:g=original	!	!	!	!	!	!	!	!	!	!
=-	=-	=-	=-	=-	=-	=-	=-	=-	=-	=-	=-	=-	=-	=-
8BB-/	.	8BB-/J	.	16BB-/	-lus	.	16d\	-lus	16b-\	-lus	.	16gg\	-lus	.
.	.	.	.	16BB-/	al-	.	16d\	Al-	16b-\	Al-	.	16gg\	Al-	.
8C/	.	4C/	.	8C/	-tiſ-	.	8c\	-tiſ-	8a\	-tiſ-	.	8ff\	-tiſ-	.
8C/J	.	.	.	8C/	-si-	.	8B-\	-si-	8g\	-si-	.	8een\	-si-	.
!LO:LB:g=original	!	!	!	!	!	!	!	!	!LO:LB:g=original	!	!	!	!	!
=62	=62	=62	=62	=62	=62	=62	=62	=62	=62	=62	=62	=62	=62	=62
8FF/L	.	8F/L	.	4FF/	-mus	.	4c\	-mus	4a\	-mus	.	4ff\	-mus	.
8AA/J	.	8C/J	.	.	.	.	.	.	.	.	.	.	.	.
!LO:TX:b:t=c	!	!	!	!	!	!	!	!	!	!	!	!	!	!
8C/L	.	8AA/L	.	4r	.	.	4r	.	4r	.	.	4r	.	.
8F/J	.	8FF/J	.	.	.	.	.	.	.	.	.	.	.	.
=63	=63	=63	=63	=63	=63	=63	=63	=63	=63	=63	=63	=63	=63	=63
*tremolo	*	*	*	*	*	*	*	*	*	*	*	*	*	*
8C/L	.	8C/L	.	(16B-X\LL	Je-	.	4B-\	Je-	16g\LL	Je-	.	4cc\	Je-	.
.	.	.	.	16A\	.	.	.	.	16f\	.	.	.	.	.
8C/	.	8C/J	.	16G\	.	.	.	.	16en\	.	.	.	.	.
.	.	.	.	16F\JJ	.	.	.	.	16d\JJ	.	.	.	.	.
8C/	.	8En/L	.	16E-\LL	.	.	4B-\	-su	16c\LL	.	.	4cc\	-su	.
.	.	.	.	16D\	.	.	.	.	16d\	.	.	.	.	.
8C/J	.	8C/J	.	16C\	.	.	.	.	16e\	.	.	.	.	.
*Xtremolo	*	*	*	*	*	*	*	*	*	*	*	*	*	*
.	.	.	.	16E-\JJ)	.	.	.	.	16c\JJ	.	.	.	.	.
!	!	!	!	!	!	!	!	!	!	!	!	!LO:LB:g=original	!	!
=64	=64	=64	=64	=64	=64	=64	=64	=64	=64	=64	=64	=64	=64	=64
8F/L	.	8FF/L	.	4A\	.	.	(16A/LL	Je-	4cc\	.	.	16cc\LL	Je-	.
.	.	.	.	.	.	.	16A/	.	.	.	.	16ff\	.	.
8C/	.	8AA/J	.	.	.	.	16G/	.	.	.	.	16ee-\	.	.
.	.	.	.	.	.	.	16A/JJ	.	.	.	.	16ff\JJ	.	.
8AA/	.	8C/L	.	4F\	-su	.	16B-/LL	.	4a\	-su	.	16gg\LL	.	.
.	.	.	.	.	.	.	16A/	.	.	.	.	16ff\	.	.
8FF/J	.	8F/J	.	.	.	.	16G/	.	.	.	.	16ee-\	.	.
.	.	.	.	.	.	.	16A/JJ)	.	.	.	.	16ff\JJ	.	.
=65	=65	=65	=65	=65	=65	=65	=65	=65	=65	=65	=65	=65	=65	=65
8C/L	.	8En/L	.	4GM\	Je-	.	4B-\	.	16b-\LL	Je-	.	4ee-\	.	.
.	.	.	.	.	.	.	.	.	16cc\	.	.	.	.	.
8En/J	.	8C/J	.	.	.	.	.	.	16g\	.	.	.	.	.
.	.	.	.	.	.	.	.	.	16b-\JJ	.	.	.	.	.
!	!	!LO:LB:g=original	!	!	!	!	!	!	!	!	!	!	!	!
=-	=-	=-	=-	=-	=-	=-	=-	=-	=-	=-	=-	=-	=-	=-
8F/L	.	8F/L	.	4Am\	.	.	8c\L	.	16a\LL	.	.	8ff\L	.	.
.	.	.	.	.	.	.	.	.	16cc\	.	.	.	.	.
8AA/J	.	8FF/J	.	.	.	.	8A\J	.	16a\	.	.	(8a\J	.	.
.	.	.	.	.	.	.	.	.	16f\JJ	.	.	.	.	.
!	!	!	!	!	!	!	!LO:LB:g=original	!	!	!	!	!	!	!
=66	=66	=66	=66	=66	=66	=66	=66	=66	=66	=66	=66	=66	=66	=66
4BB-/	.	8D/L	.	8B-\	.	.	8B-\	.	8f\	.	.	8dd\)	.	.
.	.	8BB-/J	.	8BB-/	-su	.	8d\	-su	8f\	-su	.	8dd\	-su	.
4C/	.	4C/	.	(8C/L	Chri-	.	4G/	Chri-	8a\L	Chri-	.	8cc\L	Chri-	.
.	.	.	.	8E-/J)	.	.	.	.	8g\J	.	.	8b-\J	.	.
=67	=67	=67	=67	=67	=67	=67	=67	=67	=67	=67	=67	=67	=67	=67
8F/L	.	8FF/L	.	4F\	-ste	.	4A/	-ste	4f\	-ste	.	4a\	-ste	.
8C/	.	8AA/J	.	.	.	.	.	.	.	.	.	.	.	.
!	!	!	!	!LO:LB:g=original	!	!	!	!	!	!	!	!	!	!
=-	=-	=-	=-	=-	=-	=-	=-	=-	=-	=-	=-	=-	=-	=-
8AA/	.	8C/L	.	4r	.	.	4r	.	4r	.	.	4r	.	.
8FF/J	.	8F/J	.	.	.	.	.	.	.	.	.	.	.	.
=68	=68	=68	=68	=68	=68	=68	=68	=68	=68	=68	=68	=68	=68	=68
8C/L	.	8c\L	.	8C/L	Je-	.	4B-\	Je-	4g\	Je-	.	4ee-\	Je-	.
!LO:SIC:v:s=8En\J	!	!	!	!LO:SIC:v:s=8En/J	!	!	!	!	!	!	!	!	!	!
8E-/J	.	8G\J	.	8E-/J	.	.	.	.	.	.	.	.	.	.
8G\L	.	8En/L	.	8G\L	-su	.	4B-\	-su	4g\	-su	.	4ee-\	-su	.
8c\J	.	8C/J	.	8c\J	.	.	.	.	.	.	.	.	.	.
!LO:LB:g=original	!	!	!	!	!	!	!	!	!LO:LB:g=original	!	!	!	!	!
=69	=69	=69	=69	=69	=69	=69	=69	=69	=69	=69	=69	=69	=69	=69
*	*	*	*	*	*ij	*	*	*ij	*	*	*	*	*	*
4F\	.	8FF/L	.	4F\	Je-	.	4c\	Je-	16a\LL	Je	.	16ff\LL	Je	.
.	.	.	.	.	.	.	.	.	16a\	.	.	16ff\	.	.
.	.	8AA/J	.	.	.	.	.	.	16g\	.	.	16ee-\	.	.
.	.	.	.	.	.	.	.	.	16a\JJ	.	.	16ff\JJ	.	.
4FF/	.	8C/L	.	4F\	-su	.	4c\	-su	16b-\LL	.	.	16gg\LL	.	.
*	*	*	*	*	*Xij	*	*	*Xij	*	*	*	*	*	*
.	.	.	.	.	.	.	.	.	16a\	.	.	16ff\	.	.
.	.	8F/J	.	.	.	.	.	.	16g\	.	.	16ee-\	.	.
.	.	.	.	.	.	.	.	.	16a\JJ	.	.	16ff\JJ	.	.
!	!	!LO:LB:g=original	!	!	!	!	!	!	!	!	!	!LO:LB:g=original	!	!
=70	=70	=70	=70	=70	=70	=70	=70	=70	=70	=70	=70	=70	=70	=70
!LO:TX:t=P:problem=mixed beam	!	!	!	!LO:TX:t=P:problem=t. 70-71 zapisane jako repetycja	!	!	!LO:TX:t=P:problem=t. 70-71 zapisane jako repetycja	!	!LO:TX:t=P:problem=t. 70-71 zapisane jako repetycja	!	!	!LO:TX:t=P:problem=t. 70-71 zapisane jako repetycja	!	!
8C/L	.	8C/L	.	8C/L	Je-	.	4B-\	Je-	4g\	Je-	.	4ee-\	Je-	.
!	!	!	!	!LO:SIC:v:s=En	!	!	!	!	!	!	!	!	!	!
8G\J	.	8En/J	.	8E-/J	.	.	.	.	.	.	.	.	.	.
!LO:SIC:v:s=8En/L	!	!	!	!	!	!	!	!	!	!	!	!	!	!
8E-/L	.	8G/L	.	8G\L	-su	.	4B-\	-su	4g\	-su	.	4ee-\	-su	.
8C/J	.	8C/J	.	8c\J	.	.	.	.	.	.	.	.	.	.
=71	=71	=71	=71	=71	=71	=71	=71	=71	=71	=71	=71	=71	=71	=71
*	*	*	*	*	*ij	*	*	*ij	*	*	*	*	*	*
4F\	.	8F\L	.	4F\	Je-	.	4c\	Je-	16a\LL	Je-	.	16ff\LL	Je-	.
.	.	.	.	.	.	.	.	.	16a\	.	.	16ff\	.	.
.	.	8F\J	.	.	.	.	.	.	16g\	.	.	16ee-\	.	.
.	.	.	.	.	.	.	.	.	16a\JJ	.	.	16ff\JJ	.	.
4FF/	.	8FF/L	.	4F\	-su	.	4c\	-su	16b-\LL	.	.	16gg\LL	.	.
*	*	*	*	*	*Xij	*	*	*Xij	*	*	*	*	*	*
.	.	.	.	.	.	.	.	.	16a\	.	.	16ff\	.	.
.	.	8FF/J	.	.	.	.	.	.	16g\	.	.	16ee-\	.	.
.	.	.	.	.	.	.	.	.	16a\JJ	.	.	16ff\JJ	.	.
=72	=72	=72	=72	=72	=72	=72	=72	=72	=72	=72	=72	=72	=72	=72
*	*	*	*	*	*ij	*	*	*ij	*	*	*	*	*	*
4BB-/	.	8r	.	8BB-/	Je-	.	8B-\	Je-	8b-\	.	.	8dd\	-su	.
.	.	8BB-/	.	8BB-/	-su	.	8d\	-su	8g\	-su	.	16cc\LL	.	.
*	*	*	*	*	*Xij	*	*	*Xij	*	*	*	*	*	*
.	.	.	.	.	.	.	.	.	.	.	.	16b-\JJ	.	.
4C/	.	8r	.	4C/	Chr(i-	.	(8c\L	Chri-	8f\L	Chri-	.	8a\L	Chri-	.
.	.	8C/	.	.	.	.	8B-\J)	.	8en\J	.	.	8gT\J	.	.
=73	=73	=73	=73	=73	=73	=73	=73	=73	=73	=73	=73	=73	=73	=73
!	!	!LO:TX:t=P:problem=mixed beam	!	!	!	!	!	!	!	!	!	!	!	!
4FF/	.	8FF/L	.	4FF/	-st)e	.	4A/	-ste	4f\	-ste	.	4f/	-ste.	.
.	.	8F\J	.	.	.	.	.	.	.	.	.	.	.	.
!LO:TX:b:i:t=Cum Scto\nVolti.	!	!LO:TX:b:t=Cum Scto. Volti	!	!	!	!	!	!	!	!	!	!	!	!
4r	.	4r	.	4r	.	.	4r	.	4r	.	.	4r	.	.
!LO:PB:g=original	!	!LO:PB:g=original	!	!	!	!	!LO:LB:g=original	!	!	!	!	!	!	!
=74||	=74||	=74||	=74||	=74||	=74||	=74||	=74||	=74||	=74||	=74||	=74||	=74||	=74||	=74||
*k[]	*	*k[]	*	*k[]	*	*	*k[]	*	*k[]	*	*	*k[]	*	*
*M3/4	*	*M3/4	*	*M3/4	*	*	*M3/4	*	*M3/4	*	*	*M3/4	*	*
*met(3)	*	*	*	*	*	*	*	*	*	*	*	*	*	*
!	!	!LO:TX:a:t=Adag	!LO:DY:b:rj	!	!	!	!	!	!	!	!	!	!	!
!LO:TX:a:t=Adag.	!LO:DY:b:rj	!	!	!LO:TX:a:t=Adag.	!	!	!LO:TX:a:t=Adag	!	!LO:TX:a:t=Adag.	!	!	!LO:TX:a:t=Adag	!	!
8GG/L	f	8G/L	f	4G\	Cum	.	4B\	Cum	4f\	Cum	.	4dd\	Cum	.
8BB/J	.	8D/J	.	.	.	.	.	.	.	.	.	.	.	.
8D\L	.	4BB/	.	4G\	S(an)-	.	4B\	S(an)-	4f\	S(an)-	.	4dd\	S(an)-	.
8G\J	.	.	.	.	.	.	.	.	.	.	.	.	.	.
8B\L	.	4GG/	.	4G\	-cto	.	4B\	-cto	4f\	-cto	.	4dd\	-cto	.
8G\J	.	.	.	.	.	.	.	.	.	.	.	.	.	.
=75	=75	=75	=75	=75	=75	=75	=75	=75	=75	=75	=75	=75	=75	=75
(8GG/L	.	8BB/L	.	4.F\	Spi-	.	4.G/	Spi-	4.b\	Spi-	.	4.dd\	Spi-	.
8BB/	.	8GG/J	.	.	.	.	.	.	.	.	.	.	.	.
8D/	.	8F/L	.	.	.	.	.	.	.	.	.	.	.	.
8F/	.	8D/J	.	8F\	-ri-	.	8G/	-ri-	8b\	-ri-	.	8dd\	-ri-	.
8G/	.	4GG/	.	4F\	-tu	.	4G/	-tu	4b\	-tu	.	4dd\	-tu	.
8F/J)	.	.	.	.	.	.	.	.	.	.	.	.	.	.
!	!	!	!	!LO:PB:g=original	!	!	!	!	!LO:LB:g=original	!	!	!	!	!
=76	=76	=76	=76	=76	=76	=76	=76	=76	=76	=76	=76	=76	=76	=76
(8GG/	.	(8G/	.	4BBn/	in	.	4G/	in	4b\	in	.	4dd\	in	.
4BB/	.	4D/	.	.	.	.	.	.	.	.	.	.	.	.
.	.	.	.	8BB/	glo-	.	8G/	Glo-	8b\	Glo-	.	8dd\	Glo-	.
8D/)	.	8BB/)	.	16BB/	-ri-	.	16G/	-ri-	16b\	-ri-	.	16dd\	-ri-	.
.	.	.	.	16BB/	-a	.	16G/	-a	16b\	-a	.	16dd\	-a	.
!	!	!	!	!	!	!	!	!	!	!	!	!LO:LB:g=original	!	!
=-	=-	=-	=-	=-	=-	=-	=-	=-	=-	=-	=-	=-	=-	=-
8F\L	.	4GG/	.	8BB/	De-	.	8G/	De-	8g\	De-	.	8dd\	De-	.
8G\J	.	.	.	8BB/	-i	.	8G/	-i	8d\	-i	.	8dd\	-i	.
=77	=77	=77	=77	=77	=77	=77	=77	=77	=77	=77	=77	=77	=77	=77
4C/	.	8r	.	(4C/	Pa-	.	2.c\	Pa-	2g\	Pa-	.	2ee\	Pa-	.
.	.	8C/	.	.	.	.	.	.	.	.	.	.	.	.
!	!	!LO:LB:g=original	!	!	!	!	!	!	!	!	!	!	!	!
=-	=-	=-	=-	=-	=-	=-	=-	=-	=-	=-	=-	=-	=-	=-
4G\	.	8r	.	4G\)	.	.	.	.	.	.	.	.	.	.
.	.	8G\	.	.	.	.	.	.	.	.	.	.	.	.
4c\	.	8r	.	4c\	-tris	.	.	.	4g\	-tris	.	4ee\	-tris	.
.	.	8c\	.	.	.	.	.	.	.	.	.	.	.	.
!LO:LB:g=original	!	!	!	!	!	!	!LO:LB:g=original	!	!	!	!	!	!	!
=78	=78	=78	=78	=78	=78	=78	=78	=78	=78	=78	=78	=78	=78	=78
*	*	*	*	*	*	*	*	*	*	*ij	*	*	*	*
(8A/L	.	8C/L	.	(4A\	Pa-	.	2.c\	.	2a\	Pa-	.	(4ee\	A-	.
8F#X/	.	8D/J	.	.	.	.	.	.	.	.	.	.	.	.
8D/	.	8F#X/L	.	2F#X\)	.	.	.	.	.	.	.	4cc\	.	.
8C/	.	8D/J	.	.	.	.	.	.	.	.	.	.	.	.
8D/	.	8F#/L	.	.	.	.	.	.	4d\	.	.	4a\)	.	.
8C/J)	.	8D/J	.	.	.	.	.	.	.	.	.	.	.	.
=79	=79	=79	=79	=79	=79	=79	=79	=79	=79	=79	=79	=79	=79	=79
8qqGG/	.	.	.	.	.	.	.	.	.	.	.	.	.	.
2.G;\	.	2.GG;/	.	2.G;>\	-tris	.	2.d;>\	-tris	2g\	-tris	.	2.b;>\	-men	.
*	*	*	*	*	*	*	*	*	*	*Xij	*	*	*	*
.	.	.	.	.	.	.	.	.	4ryy	.	.	.	.	.
=80||	=80||	=80||	=80||	=80||	=80||	=80||	=80||	=80||	=80||	=80||	=80||	=80||	=80||	=80||
!LO:TX:b:t=Amen.	!	!LO:TX:a:t=Allo.	!	!	!	!	!	!	!	!	!	!	!	!
!LO:TX:a:t=Allo	!LO:DY:b:rj	!LO:TX:b:t=Amen	!	!LO:TX:a:t=Allo.	!	!	!LO:TX:a:t=Allegto.	!	!LO:TX:a:t=Allegto	!	!	!LO:TX:a:t=Allegto.	!	!
4C/	ff	2.C/	.	4C/	A-	.	2.E/	A-	2.g\	A-	.	2.cc\	A-	.
8C/L	.	.	.	8C/L	.	.	.	.	.	.	.	.	.	.
8BB/J	.	.	.	8BB/J	.	.	.	.	.	.	.	.	.	.
4C/	.	.	.	4C/	-men	.	.	.	.	.	.	.	.	.
!	!	!	!	!LO:LB:g=original	!	!	!	!	!	!	!	!	!	!
=81	=81	=81	=81	=81	=81	=81	=81	=81	=81	=81	=81	=81	=81	=81
4D\	.	4D/	.	(4D/	A-	.	2G/	-men	2f\	.	.	2.b\	.	.
4G\	.	4BB/	.	4G\)	.	.	.	.	.	.	.	.	.	.
4D/	.	4GG/	.	4D/	.	.	4r	.	4B/	.	.	.	.	.
!	!	!LO:LB:g=original	!	!	!	!	!	!	!	!	!	!	!	!
=82	=82	=82	=82	=82	=82	=82	=82	=82	=82	=82	=82	=82	=82	=82
4E\	.	4C/	.	4E\	.	.	1.r	.	4c/	-men	.	2g\	.	.
8E\L	.	8C/L	.	8E\L	.	.	.	.	2cc\	a-	.	.	.	.
8D\J	.	8BB/J	.	8D\J	.	.	.	.	.	.	.	.	.	.
4E\	.	4C/	.	4E\	.	.	.	.	.	.	.	4cc\	-men	.
!	!	!	!	!	!	!	!	!	!LO:LB:g=original	!	!	!	!	!
=83	=83	=83	=83	=83	=83	=83	=83	=83	=83	=83	=83	=83	=83	=83
4F\	.	4D\	.	4F\	.	.	.	.	4f\	.	.	4a\	A-	.
2F#X\	.	4A\	.	2F#X\	.	.	.	.	8f\L	.	.	8dd\L	.	.
.	.	.	.	.	.	.	.	.	8e\J	.	.	8cc\J	.	.
.	.	4D\	.	.	.	.	.	.	4f#X\	.	.	4dd\	.	.
!LO:LB:g=original	!	!	!	!	!	!	!	!	!	!	!	!	!	!
=84	=84	=84	=84	=84	=84	=84	=84	=84	=84	=84	=84	=84	=84	=84
4G\	.	2BB/	.	4G\	-men	.	4r	.	2g\	.	.	4b\	-men	.
4D\	.	.	.	4r	.	.	4r	.	.	.	.	4r	.	.
4GG/	.	4G\	.	4r	.	.	4G/	A-	4g\	-men	.	4r	.	.
!	!	!	!	!	!	!	!	!	!	!	!	!LO:LB:g=original	!	!
=85	=85	=85	=85	=85	=85	=85	=85	=85	=85	=85	=85	=85	=85	=85
2.D/	.	4D\	.	2.D\	A-	.	4A/	.	4f#X\	a-	.	2.r	.	.
.	.	4d\	.	.	.	.	8A/L	.	8f#\L	.	.	.	.	.
.	.	.	.	.	.	.	8G/J	.	8e\J	.	.	.	.	.
.	.	4d\	.	.	.	.	4A/	.	4f#\	-men	.	.	.	.
=86	=86	=86	=86	=86	=86	=86	=86	=86	=86	=86	=86	=86	=86	=86
4G\	.	4D/	.	4G\	.	.	2.B\	-men	2.r	.	.	4r	.	.
8Fn\L	.	2B\	.	8Fn\L	.	.	.	.	.	.	.	4r	.	.
8E\J	.	.	.	8E\J	.	.	.	.	.	.	.	.	.	.
4D\	.	.	.	4D\	.	.	.	.	.	.	.	4dd\	A-	.
=87	=87	=87	=87	=87	=87	=87	=87	=87	=87	=87	=87	=87	=87	=87
4C/	.	4c\	.	4C/	.	.	1.r	.	4r	.	.	2.ee\	men	.
8C/L	.	4G\	.	8C/L	.	.	.	.	4r	.	.	.	.	.
8BB/J	.	.	.	8BB/J	.	.	.	.	.	.	.	.	.	.
4C/	.	4E\	.	4C/	-men	.	.	.	4g\	A-	.	.	.	.
!	!	!LO:LB:g=original	!	!LO:LB:g=original	!	!	!	!	!	!	!	!	!	!
=88	=88	=88	=88	=88	=88	=88	=88	=88	=88	=88	=88	=88	=88	=88
2F\	.	4FF/	.	2.F\	A-	.	.	.	4fn\	.	.	4a\	a-	.
.	.	4F\	.	.	.	.	.	.	8a\L	.	.	8ff\L	.	.
.	.	.	.	.	.	.	.	.	8g\	.	.	8ee\	.	.
4FF/	.	4F\	.	.	.	.	.	.	8f\	.	.	8dd\	.	.
.	.	.	.	.	.	.	.	.	8e\J	.	.	8cc\J	.	.
!	!	!	!	!	!	!	!LO:LB:g=original	!	!	!	!	!	!	!
=89	=89	=89	=89	=89	=89	=89	=89	=89	=89	=89	=89	=89	=89	=89
2G\	.	4GG/	.	2.G\	.	.	4f\	A-	4d\	.	.	2.b\	.	.
.	.	4G\	.	.	.	.	8B\L	.	8g\L	.	.	.	.	.
.	.	.	.	.	.	.	8d\	.	8f\	.	.	.	.	.
4GG/	.	4G\	.	.	.	.	8c\	.	8e\	.	.	.	.	.
.	.	.	.	.	.	.	8B\J	.	8d\J	.	.	.	.	.
!	!	!	!	!	!	!	!	!	!LO:LB:g=original	!	!	!	!	!
=90	=90	=90	=90	=90	=90	=90	=90	=90	=90	=90	=90	=90	=90	=90
2.C/	.	4C/	.	2.C/	.	.	4G/	-men	4.e\	.	.	4.cc\	.	.
.	.	2c\	.	.	.	.	2F#X/	a-	.	.	.	.	.	.
.	.	.	.	.	.	.	.	.	8cc\L	.	.	8ff\L	.	.
.	.	.	.	.	.	.	.	.	8b\	.	.	8ee\	.	.
.	.	.	.	.	.	.	.	.	8a\J	.	.	8dd\J	.	.
!LO:LB:g=original	!	!	!	!	!	!	!	!	!	!	!	!	!	!
=91	=91	=91	=91	=91	=91	=91	=91	=91	=91	=91	=91	=91	=91	=91
[2.GG/	.	[2.GG/	.	[2.GG/	.	.	[2.G/	.	4g\	men	.	4cc\	-men	.
.	.	.	.	.	.	.	.	.	8g\L	a-	.	4b\	A-	.
.	.	.	.	.	.	.	.	.	8a\	.	.	.	.	.
.	.	.	.	.	.	.	.	.	8b\	.	.	4gg\	.	.
.	.	.	.	.	.	.	.	.	8g\J	.	.	.	.	.
=92	=92	=92	=92	=92	=92	=92	=92	=92	=92	=92	=92	=92	=92	=92
2.GG/_	.	2.GG/_	.	2.GG/_	.	.	2.G/]	.	4f\	.	.	4a\	.	.
.	.	.	.	.	.	.	.	.	8a\L	.	.	8ff\L	.	.
.	.	.	.	.	.	.	.	.	8g\	.	.	8ee\J	.	.
.	.	.	.	.	.	.	.	.	8f\	.	.	4ff\	.	.
.	.	.	.	.	.	.	.	.	8d\J	.	.	.	.	.
=93	=93	=93	=93	=93	=93	=93	=93	=93	=93	=93	=93	=93	=93	=93
2.GG/]	.	2.GG/]	.	2.GG/]	.	.	4G/	.	2.g\	.	.	4g\	.	.
!	!	!	!	!	!	!	!	!	!	!	!	!LO:LB:g=original	!	!
=-	=-	=-	=-	=-	=-	=-	=-	=-	=-	=-	=-	=-	=-	=-
.	.	.	.	.	.	.	8c\L	.	.	.	.	8ee\L	.	.
.	.	.	.	.	.	.	8B\J	.	.	.	.	8dd\J	.	.
.	.	.	.	.	.	.	4c\	-men	.	.	.	4ee\	.	.
=94	=94	=94	=94	=94	=94	=94	=94	=94	=94	=94	=94	=94	=94	=94
2.G\	.	4G\	.	2.G\	-men	.	[2.G/	a-	4d\	-men	.	4f/	.	.
.	.	4G\	.	.	.	.	.	.	8b\L	a-	.	8dd\L	.	.
.	.	.	.	.	.	.	.	.	8a\	.	.	8cc\J	.	.
.	.	4G\	.	.	.	.	.	.	8g\	.	.	4dd\	.	.
.	.	.	.	.	.	.	.	.	8b\J	.	.	.	.	.
!	!	!LO:LB:g=original	!	!	!	!	!	!	!	!	!	!	!	!
=95	=95	=95	=95	=95	=95	=95	=95	=95	=95	=95	=95	=95	=95	=95
8c\L	.	2C/	.	(8c\L	A-	.	2.G/]	.	2.g\	.	.	8ee\L	.	.
8B\	.	.	.	8B\	.	.	.	.	.	.	.	8dd\	.	.
8A\	.	.	.	8A\	.	.	.	.	.	.	.	8cc\	.	.
8G\	.	.	.	8G\	.	.	.	.	.	.	.	8b\J	.	.
8F\	.	4c\	.	8F\	.	.	.	.	.	.	.	8a/L	-men	.
8E\J	.	.	.	8E\J)	.	.	.	.	.	.	.	8g/J	.	.
!	!	!	!	!	!	!	!LO:LB:g=original	!	!	!	!	!	!	!
=96	=96	=96	=96	=96	=96	=96	=96	=96	=96	=96	=96	=96	=96	=96
2.D/	.	4D/	.	2.D/	.	.	8f\L	.	8a\L	.	.	2.r	.	.
.	.	.	.	.	.	.	8e\	.	8g\J	.	.	.	.	.
!	!	!	!	!LO:LB:g=original	!	!	!	!	!LO:LB:g=original	!	!	!	!	!
=-	=-	=-	=-	=-	=-	=-	=-	=-	=-	=-	=-	=-	=-	=-
.	.	4d\	.	.	.	.	8d\	.	8f/L	.	.	.	.	.
.	.	.	.	.	.	.	8c\	.	8e/	.	.	.	.	.
.	.	4d\	.	.	.	.	8B\	.	8d/	.	.	.	.	.
.	.	.	.	.	.	.	8A\J	.	8c/J	.	.	.	.	.
=97	=97	=97	=97	=97	=97	=97	=97	=97	=97	=97	=97	=97	=97	=97
4GG/	.	2G\	.	4C/	.	.	4G/	-men	2f\	.	.	(4cc\	A-	.
4G\	.	.	.	4G\	.	.	2c\	a-	.	.	.	4ee\)	.	.
4c\	.	4C/	.	4c\	-men	.	.	.	4e\	-men	.	4dd\	-men	.
=98	=98	=98	=98	=98	=98	=98	=98	=98	=98	=98	=98	=98	=98	=98
4F\	.	8D\L	.	(4F\	A-	.	2c\	.	4f\	a-	.	8a\L	A-	.
.	.	8F\J	.	.	.	.	.	.	.	.	.	8ff\J	.	.
4G\	.	2G\	.	4G\)	.	.	.	.	(4g\	.	.	(4ee\	.	.
4GG/	.	.	.	4GG/	-men	.	4B\	.	4f\)	.	.	4dd\)	.	.
!LO:LB:g=original	!	!	!	!	!	!	!	!	!	!	!	!	!	!
=99	=99	=99	=99	=99	=99	=99	=99	=99	=99	=99	=99	=99	=99	=99
8c\L	.	8C/L	.	8C/L	A-	.	4G/	-men	4g\	-men	.	4ee\	-men	.
8G\	.	8E/J	.	8E/	.	.	.	.	.	.	.	.	.	.
8c\	.	8G\L	.	8G/	.	.	4r	.	4r	.	.	4r	.	.
8G\	.	8c\J	.	8c/	.	.	.	.	.	.	.	.	.	.
*	*	*	*	*	*	*	*	*ij	*	*ij	*	*	*	*
8B\	.	8B\L	.	8B/	.	.	4G/	a-	4f\	a-	.	4dd\	a-	.
8G\J	.	8G\J	.	8G/J	.	.	.	.	.	.	.	.	.	.
!	!	!	!	!	!	!	!	!	!	!	!	!LO:LB:g=original	!	!
=100	=100	=100	=100	=100	=100	=100	=100	=100	=100	=100	=100	=100	=100	=100
8c\L	.	8C/L	.	8C/L	.	.	4G/	-men	4g\	-men	.	4ee\	-men	.
8G\	.	8E/J	.	8E/	.	.	.	.	.	.	.	.	.	.
!	!	!LO:LB:g=original	!	!	!	!	!	!	!	!	!	!	!	!
=-	=-	=-	=-	=-	=-	=-	=-	=-	=-	=-	=-	=-	=-	=-
8c\	.	8G\L	.	8G/	.	.	4r	.	4r	.	.	4r	.	.
8G\	.	8c\J	.	8c/	.	.	.	.	.	.	.	.	.	.
*	*	*	*	*	*	*	*	*	*	*	*	*	*ij	*
8B\	.	8B\L	.	8B/	.	.	4G/	a-	4f\	a-	.	4dd\	a-	.
8G\J	.	8G\J	.	8G/J	.	.	.	.	.	.	.	.	.	.
=101	=101	=101	=101	=101	=101	=101	=101	=101	=101	=101	=101	=101	=101	=101
8E/L	.	8E\L	.	4C/	-men	.	4G/	-men	4g\	-men	.	4ee\	-men	.
8C/J	.	8C\J	.	.	.	.	.	.	.	.	.	.	.	.
4G\	.	4G\	.	(4G\	A-	.	4r	.	4r	.	.	4r	.	.
4GG/	.	4GG/	.	4GG/)	.	.	4G/	a-	4f\	a-	.	4dd\	a-	.
=102	=102	=102	=102	=102	=102	=102	=102	=102	=102	=102	=102	=102	=102	=102
4C/	.	4C/	.	4C/	-men	.	4c\	-men	4g\	-men	.	4ee\	-men	.
*	*	*	*	*	*	*	*	*Xij	*	*Xij	*	*	*Xij	*
4r	.	4r	.	4r	.	.	4r	.	4r	.	.	4r	.	.
!	!	!	!	!LO:TX:b:t=Subito Graduale	!	!	!LO:TX:b:t=N3 subito posterius pro Graduale	!	!LO:TX:b:t=N3 Subito posterius ad Graduale	!	!	!LO:TX:a:t=N3 subito posterius\npro Graduali	!	!
4r	.	4r	.	4r	.	.	4r	.	4r	.	.	4r	.	.
==	==	==	==	==	==	==	==	==	==	==	==	==	==	==
*-	*-	*-	*-	*-	*-	*-	*-	*-	*-	*-	*-	*-	*-	*-
!!!system-decoration: [(s1,s2,s3,s4)][(s5,s6)]
!!!RDF**kern: < = below
!!!RDF**kern: > = above
!!!ENC: Marta Chmielewska
!!!END: 2021-08-03
!!!ENC: Marcin Jachim
!!!END: 2021-07-06
